storybook-conditional-toolbar-selector.svg

<svg height="140" preserveAspectRatio="xMidYMid meet" viewBox="0 0 140 140" width="140" xmlns="http://www.w3.org/2000/svg"><path d="m140 0v92.38c0 26.3-21.32 47.62-47.62 47.62-12.32 0-43.11 0-92.38 0 0-48.23 0-78.38 0-90.44 0-27.37 22.19-49.56 49.56-49.56z" fill="#8e2bae"/><path d="m78.48 20c3.6 0 6.52 2.91 6.52 6.51v16.97c0 3.6-2.92 6.52-6.52 6.52-4.7 0-12.27 0-16.97 0-3.6 0-6.51-2.92-6.51-6.52 0-4.7 0-12.27 0-16.97 0-3.6 2.91-6.51 6.51-6.51z" fill="#fff" opacity=".75"/><path d="m93.97 52c3.33 0 6.03 2.7 6.03 6.03v47.94c0 3.33-2.7 6.03-6.03 6.03-10.8 0-37.15 0-47.94 0-3.33 0-6.03-2.7-6.03-6.03 0-10.79 0-37.14 0-47.94 0-3.33 2.7-6.03 6.03-6.03z" fill="#fff" opacity=".5"/><g fill="none" stroke="#8e2bae" stroke-width="2"><path d="m40 72.39 19.59-.39h10.02 12.33 11.52 6.54"/><path d="m40 92.39 20.34-.39h9.26 11.39 19.01"/></g></svg>

<?xml version="1.0" encoding="UTF-8" standalone="no"?>
<!DOCTYPE svg PUBLIC "-//W3C//DTD SVG 1.1//EN" "http://www.w3.org/Graphics/SVG/1.1/DTD/svg11.dtd">
<svg version="1.1" xmlns="http://www.w3.org/2000/svg" xmlns:xlink="http://www.w3.org/1999/xlink" preserveAspectRatio="xMidYMid meet" viewBox="0 0 140 140" width="140" height="140"><defs><path d="M140 0C140 49.27 140 80.06 140 92.38C140 118.68 118.68 140 92.38 140C80.06 140 49.27 140 0 140C0 91.77 0 61.62 0 49.56C0 22.19 22.19 0 49.56 0C61.62 0 91.77 0 140 0Z" id="evHrgt5q1"></path><path d="M78.48 20C82.08 20 85 22.91 85 26.51C85 31.21 85 38.78 85 43.48C85 47.08 82.08 50 78.48 50C73.78 50 66.21 50 61.51 50C57.91 50 55 47.08 55 43.48C55 38.78 55 31.21 55 26.51C55 22.91 57.91 20 61.51 20C66.21 20 73.78 20 78.48 20Z" id="d2sJ3AMq34"></path><path d="M93.97 52C97.3 52 100 54.7 100 58.03C100 68.83 100 95.18 100 105.97C100 109.3 97.3 112 93.97 112C83.17 112 56.82 112 46.03 112C42.7 112 40 109.3 40 105.97C40 95.18 40 68.83 40 58.03C40 54.7 42.7 52 46.03 52C56.82 52 83.17 52 93.97 52Z" id="brB29CNm"></path><path d="M40 72.39L59.59 72L69.61 72L81.94 72L93.46 72L100 72" id="b3zqcexTrB"></path><path d="" id="abZotCa1r"></path><path d="M40 92.39L60.34 92L69.6 92L80.99 92L100 92" id="b96aulpMv"></path><path d="" id="aTWUmjZXl"></path></defs><g><g><g><use xlink:href="#evHrgt5q1" opacity="1" fill="#8e2bae" fill-opacity="1"></use></g><g><use xlink:href="#d2sJ3AMq34" opacity="0.75" fill="#ffffff" fill-opacity="1"></use></g><g><use xlink:href="#brB29CNm" opacity="0.5" fill="#ffffff" fill-opacity="1"></use></g><g><g><use xlink:href="#b3zqcexTrB" opacity="1" fill-opacity="0" stroke="#8e2bae" stroke-width="2" stroke-opacity="1"></use></g></g><g><g><use xlink:href="#abZotCa1r" opacity="1" fill-opacity="0" stroke="#000000" stroke-width="1" stroke-opacity="1"></use></g></g><g><g><use xlink:href="#b96aulpMv" opacity="1" fill-opacity="0" stroke="#8e2bae" stroke-width="2" stroke-opacity="1"></use></g></g><g><g><use xlink:href="#aTWUmjZXl" opacity="1" fill-opacity="0" stroke="#623b6f" stroke-width="1" stroke-opacity="1"></use></g></g></g></g></svg>
